X: 6173
T: Captain's, The
R: hornpipe
M: 4/4
K: Gmajor
d2 c2|:(3BBB DG BB dB|(3ccc EA cc ed|
(3BBB DG BB dB|AG FE D2dc|
(3BBB DG BB dB|(3ccc EA cc ed|
de fe dc BA|(3GBd (3gdB G2 dc:|
|:Bg DG B2 dc|Bg DG B2 dd|ca Ac a2 dd|ca Ac a2 dc|
Bg DG B2 dc|Bg DG B2 fe|de fe dc BA|

